X: 195
T: Orepolska
O: Dalarna, Ore
R: Polska
Z: Hkan Lidn, 2008-09-27
M: 3/4
L: 1/8
K: Am
E | A>B c2 c>d | cB/A/ B2 B>c | BA/^G/ A>B cd | e/d/e/^f/ e2 c>d | 
cB B2 g2 | g^f/g/ a>g f>g | ^fe/f/ B2 g2 | ^fe/^d/ e3 :|
|: B | ce a2 a^g/a/ | b2 g2 g^f/g/ | e2 c2 cB/c/ | d>c cB B>B |
ce a2 a^g/a/ | b2 g2 g^f/g/ | e2 c2 cB/c/ | d>c cB B>c | 
BA/^G/ A>B cd | e/d/e/^f/ e2 c2 | cB/c/ d>c BA | ^G/E/G/B/ A3 :|
